X: 1
T: As With Gladness Men of Old
P: piffero primo c0003
O: Conrad Kocher
%R: march
F: http://ancients.sudburymuster.org/mus/col/pdf/carolsF.pdf
Z: 2020 John Chambers <jc:trillian.mit.edu>
M: 4/4
L: 1/8
K: A
V: 1
V: 2
%%score (1 2)
% - - - - - - - - - -
V: 1 staves=2
[|\
A2GA B2A2 | d2d2 c4 | F2G2 A2F2 | E2E2 E4 |\
A2GA B2A2 | d2d2 c4 | F2G2 A2F2 | E2E2 E4 |\
c2B2 A2c2 | e3d  c4 | F2G2 A2d2 | c2B2 A4 |]
% - - - - - - - - - -
V: 2 
[|\
E8 | D2E2 E4 | D2D2 E2D2 | B,2B,2 C4 |\
E8 | D2E2 E4 | D2D2 E2D2 | B,2B,2 C4 |\
E2ED C2E2 | E4 E4 | D2D2 E2D2 | E3D C4 |]
%% - - - - - - - - - -
